X:399
T:Das Moorsoldatenlied
T:The peatbog soldiers
C:anon.
O:Germany
N:This song is been said to have been written by a war prisoner in Germany during WW II.
Z:Transcribed by Frank Nordberg - http://www.musicaviva.com
F:http://abc.musicaviva.com/tunes/germany/moorsoldatenlied/moorsoldatenlied-1.abc
D:The Dubliners
M:2/4
L:1/4
Q:132
K:Em
"Em"EB,|"Em"EG/F/|"Em"EB,|"Em"EE|"Am"AF|
w:Wo-hin auch das_ Au-ge blik-ket, Moor und
"Em"GE|"B"FB,|"Em"E2|"G"GG|"G"G "D"B/A/|"G"GD|
w:Hei-de nur rings um. Vo-gel-sang uns_ nicht er-
"G"GG|"D"AF|"Em"GE|"B"FB,|"Em"E2-|"Em"E "D7"D|
w:quik-ket, Ei-chen ste-hen kahl und krumm._ Wir
|:"G"B>B|"G"B>G|"D"A2|"D"AA|"Em"G>G|"Em"G>E|
w:sind die Moor-sol-da-ten und zie-hen mit dem
"B"F2|"B"F>B,|[1"Em"E2-|"Em"E "D7"D:|[2"Em"E2-|"Em"Ez|]
w:Spa-ten ins Moor._ Wir Moor._
W:
W:Wohin auch das Auge blikket,
W:Moor und Heide nur rings um.
W:Vogelsang uns nicht erquikket,
W:Eichen stehen kahl und krumm.
W:  Wir sind die Moorsoldaten
W:  und ziehen mit dem Spaten
W:    ins Moor.
W:
W:Hier in diesen \"oden Heide
W:ist das Lager aufgebaut,
W:wo wir ferne jeder Freude
W:hinter Stacheldracht verstaut.
W:
W:Morgen ziehen die Kolonnen
W:in das Moor zur Arbeit hin,
W:graben bei dem Brand der Sonnen,
W:doch zur Heimat steht der Sinn.
W:
W:Heimw\"arts, heimw\"arts jeder sehnet,
W:zu den Eltern, Weib und Kind.
W:Manche Brust ein Seufzer dehnet,
W:weil wir hier gefangen sind.
W:
W:Auf und nieder gehn die Posten,
W:keiner, keiner kann hindurch.
W:Flucht wird nur das Leben kosten,
W:vierfach ist umz\"aunt die Burg.
W:
W:Doch f\"ur uns gibt es kein Klagen,
W:ewig kann's nicht Winter sein,
W:einmal werden froh wir sagen:
W:Heimat, du bist wieder mein!
W:  Dann ziehn die Moorsoldaten
W:  nicht mehr mit dem Spaten
W:    ins Moor!
W:
W:---
W:
W:Far and wide as the eye can wander
W:heath and bog are everywhere.
W:Not a bird sings out to cheer us,
W:oaks are standing gaunt and bare.
W:  We are the peatbog soldiers,
W:  marching with our spades to the moor.
W:
W:Up and down the guards are pacingm
W:no one, no one can get through.
W:Flight would mean a sure death facing,
W:guns and barbed wire greet our view
W:  We are the peatbog soldiers,
W:  marching with our spades to the moor.
W:
W:But for us there is no complaining,
W:winter will in time be past.
W:One day we will cry rejoicing:
W:"Homeland dear, you're mine at last!"
W:  Then will the peatbog soldiers
W:  march no more with their spades to the moor.
W:
W:
W:  From Musica Viva - http://www.musicaviva.com
W:  the Internet center for free sheet music downloads.

